svgs/thin/square-arrow-up-left.svg

<svg xmlns="http://www.w3.org/2000/svg" viewBox="0 0 448 512"><!--! Font Awesome Pro 6.3.0 by @fontawesome - https://fontawesome.com License - https://fontawesome.com/license (Commercial License) Copyright 2023 Fonticons, Inc. --><path d="M155.3 176H296c4.42 0 8-3.582 8-8C304 163.6 300.4 160 296 160h-160C131.6 160 128 163.6 128 168v160c0 4.422 3.576 8 8 8c4.418 0 7.998-3.578 7.998-8V187.3l162.3 162.3c3.115 3.117 8.188 3.129 11.31 0c3.127-3.125 3.117-8.195 0-11.31L155.3 176zM384 32H64C28.65 32 0 60.66 0 96v320c0 35.35 28.65 64 64 64h320c35.35 0 64-28.65 64-64V96C448 60.66 419.3 32 384 32zM432 416c0 26.47-21.53 48-48 48H64c-26.47 0-48-21.53-48-48V96c0-26.47 21.53-48 48-48h320c26.47 0 48 21.53 48 48V416z"/></svg>

<svg xmlns="http://www.w3.org/2000/svg" viewBox="0 0 448 512"><!-- Font Awesome Pro 6.0.0-alpha2 by @fontawesome - https://fontawesome.com License - https://fontawesome.com/license (Commercial License) --><path d="M155.312 176H296C300.42 176 304 172.418 304 168C304 163.578 300.42 160 296 160H136C131.58 160 128 163.578 128 168V328C128 332.422 131.576 336 136 336C140.418 336 143.998 332.422 143.998 328V187.312L306.346 349.656C309.461 352.773 314.533 352.785 317.658 349.656C320.785 346.531 320.775 341.461 317.658 338.344L155.312 176ZM384 32H64C28.652 32 0 60.656 0 96V416C0 451.348 28.652 480 64 480H384C419.348 480 448 451.348 448 416V96C448 60.656 419.348 32 384 32ZM432 416C432 442.469 410.469 464 384 464H64C37.531 464 16 442.469 16 416V96C16 69.531 37.531 48 64 48H384C410.469 48 432 69.531 432 96V416Z"/></svg>
